X: 18270
T: Humours Of Ranelagh, The
R: jig
M: 6/8
K: Gmajor
|:DGG BGG|Bdg edB|DFF AFF|fed cAF|
DGG BGG|Bdg ede|def gdB|cAF ~G3:|
|:~g3 Bdg|Bdg ~g3|~f3 ~a3|fed cAF|
DGG DAA|B/c/dg ~e3|def gdB|cAF ~G3:|

